X:1
T:La Rioja, 88.87 D
T:La Rioja, 88.87 D
T:Joseph Lincoln Hall, 1906
T:Public Domain Courtesy of the Cyber Hymnal™
C:Joseph Lincoln Hall, 1906
Z:Public Domain
Z:Courtesy of the Cyber Hymnal™
%%score 1 2
L:1/8
Q:1/4=93
M:3/4
K:Ab
V:1 treble 
V:2 bass 
V:1
 [CE][CE] [CA] | [Ec]3 [Fd] [Ec]>[DB] | [DB]3 [DE] [DE][DG] | [DB]3 [Ec] [DB]>[CA] | %4
 [CA]3 [CE] [CE][CA] | [Ec]3 [_Ge] [Fe]>[Fd] | [Fd]3 [Fd] [Ec]>[Ec] | [Ec]4 [CA]2 | %8
 [DB]2 !fermata![CA][CA] [CA][Ec] | [Ae]3 [Ac] [Ac]>[GB] | [GB]3 [GB] [GB][Ac] | %11
 [Bd]3 [ce] [Bd]>[Ac] | [Ac]3 [CE] [CE][CA] | [Ec]3 [_Ge] [Fe]>[Fd] | [Fd]3 [Fd] [Ec]>[Ec] | %15
 [Ec]4 [CA]2 | [DB]2 !fermata![CA] |] %17
V:2
 [A,,A,][A,,A,] [A,,A,] | [A,,A,]3 [A,,A,] [E,A,]>[E,G,] | [E,G,]3 [E,G,] [E,G,][E,B,] | %3
 [E,G,]3 [E,G,] [E,G,]>[A,,A,] | [A,,A,]3 [A,,A,] [A,,A,][A,,A,] | [A,,A,]3 [C,A,] [D,A,]>[D,A,] | %6
 [D,A,]3 [D,A,] [E,A,]>[E,A,] | [E,A,]4 [E,A,]2 | [E,G,]2 !fermata![A,,A,][A,,A,] [A,,A,][A,,A,] | %9
 [A,C]3 [A,E] [E,E]>[E,E] | [E,E]3 [E,E] [E,E][E,E] | [E,E]3 [E,E] [G,E]>[A,E] | %12
 [A,E]3 [A,,A,] [A,,A,][A,,A,] | [A,,A,]3 [C,A,] [D,A,]>[D,A,] | [D,A,]3 [A,,A,] [E,A,]>[E,A,] | %15
 [E,A,]4 [E,A,]2 | [E,G,]2 !fermata![A,,A,] |] %17

